build/img/icons/quote.svg

<svg width="24" height="20" viewBox="0 0 24 20" fill="none" xmlns="http://www.w3.org/2000/svg">
<path d="M10.3695 0.107422C6.11662 0.406262 0.00336 1.08526 0 9.41428V19.8937H9.49008V8.68148H6.33892C6.1393 5.68762 8.6046 4.91456 11.2855 4.32114L10.3695 0.107422ZM23.084 0.107422C18.8311 0.406262 12.7178 1.08528 12.7145 9.41428V19.8937H22.2046V8.68148H19.0534C18.8538 5.68762 21.3191 4.91456 24 4.32114L23.084 0.107422Z" fill="#5CC773"/>
</svg>

<svg width="24" height="20" fill="none" xmlns="http://www.w3.org/2000/svg">
    <path d="M10.37.107C6.117.407.002 1.085 0 9.414v10.48h9.49V8.68H6.34c-.2-2.993 2.266-3.766 4.947-4.36L10.37.107zm12.714 0c-4.253.3-10.366.978-10.37 9.307v10.48h9.49V8.68h-3.15c-.2-2.993 2.265-3.766 4.946-4.36L23.084.107z" fill="#5CC773"/>
</svg>
